libs/ui/packages/crypto-icons/src/svg/IQ.svg

<svg width="24" height="24" viewBox="0 0 24 24" fill="none">
<path d="M9.04951 7.78604C9.05435 6.364 9.58917 4.99484 10.5495 3.94604C10.812 3.68354 10.842 3.63104 10.842 3.42105C10.842 3.21105 10.842 3.19604 10.6845 3.19604C10.4898 3.21761 10.2968 3.25269 10.107 3.30104C7.86848 3.82985 5.91426 5.18895 4.63951 7.10354C4.02405 8.01144 3.59102 9.03035 3.36451 10.1035C3.17672 11.092 3.13126 12.1022 3.22951 13.1035C3.50507 15.3254 4.62163 17.3573 6.34951 18.781C7.27201 19.531 8.30701 20.131 8.30701 19.861C8.24648 19.7447 8.16513 19.6405 8.06701 19.5535C7.60291 19.042 7.25582 18.4355 7.04988 17.7763C6.84394 17.117 6.7841 16.4208 6.87451 15.736C6.94122 14.8853 7.2067 14.062 7.6496 13.3325C8.09249 12.603 8.70043 11.9877 9.42451 11.536C9.60744 11.4057 9.80056 11.2904 10.002 11.191C10.1145 11.191 10.047 10.966 9.76951 10.441C9.29472 9.63706 9.04596 8.71974 9.04951 7.78604ZM20.682 10.126C20.4168 8.83414 19.8708 7.61632 19.0828 6.55875C18.2949 5.50119 17.2841 4.62973 16.122 4.00604C15.702 3.77354 15.492 3.72104 15.492 3.86354C15.5317 3.98348 15.5926 4.09527 15.672 4.19354C16.1369 4.85395 16.3977 5.6363 16.422 6.44354C16.4693 6.86443 16.4268 7.29054 16.2976 7.69386C16.1683 8.09717 15.9551 8.46854 15.672 8.78354C15.5266 8.93767 15.3266 9.0287 15.1149 9.03711C14.9032 9.04552 14.6967 8.97065 14.5395 8.82854C14.2395 8.61104 14.2395 8.46104 14.427 8.18354C14.8243 7.59922 15.0217 6.90192 14.9895 6.19604C15.0186 5.91226 14.9839 5.62555 14.8879 5.35692C14.7919 5.08829 14.637 4.84454 14.4345 4.64354C14.2503 4.45256 14.0172 4.31588 13.7606 4.24842C13.504 4.18096 13.2338 4.18533 12.9795 4.26104C12.6159 4.40756 12.2941 4.64172 12.0429 4.94269C11.7916 5.24365 11.6187 5.60208 11.5395 5.98604C11.3675 6.54105 11.2667 7.11564 11.2395 7.69604C11.2451 8.58479 11.4637 9.45925 11.877 10.246C12.1654 10.6983 12.5221 11.1031 12.9345 11.446C13.017 11.5 13.0898 11.566 13.152 11.641C13.0795 11.7007 12.9951 11.7441 12.9045 11.7685C12.3249 12.0428 11.806 12.4303 11.3783 12.9082C10.9507 13.386 10.623 13.9446 10.4145 14.551C10.14 15.2549 10.0173 16.0089 10.0545 16.7635C10.0393 17.1192 10.0982 17.4742 10.2273 17.806C10.3564 18.1378 10.5529 18.4391 10.8045 18.691C11.0892 18.9375 11.4261 19.1162 11.7899 19.2136C12.1536 19.311 12.5347 19.3247 12.9045 19.2535C13.8952 19.1794 14.8217 18.7349 15.4995 18.0085C15.807 17.6785 15.867 17.641 15.927 17.716C15.987 17.791 15.972 17.836 15.8595 18.0235C15.1473 19.2399 14.0044 20.1446 12.657 20.5585C12.3945 20.626 12.282 20.6785 12.282 20.7385C12.282 20.9335 13.9245 20.6635 14.922 20.311C16.1943 19.8462 17.3464 19.1024 18.2938 18.1342C19.2412 17.1661 19.9598 15.9981 20.397 14.716C20.7204 13.8232 20.8607 12.8743 20.8095 11.926C20.8437 11.3231 20.8009 10.7182 20.682 10.126Z" fill="#55DDFF"/>
</svg>

<svg width="24" height="24" viewBox="0 0 24 24" fill="none"><path fill="#5df" d="M9.05 7.786a5.72 5.72 0 0 1 1.5-3.84c.262-.262.292-.315.292-.525s0-.225-.158-.225a4 4 0 0 0-.577.105A9.07 9.07 0 0 0 4.64 7.104a8.5 8.5 0 0 0-1.275 3 10.6 10.6 0 0 0-.135 3 8.75 8.75 0 0 0 3.12 5.677c.922.75 1.957 1.35 1.957 1.08a1.1 1.1 0 0 0-.24-.308 4.76 4.76 0 0 1-1.192-3.817 5.45 5.45 0 0 1 2.55-4.2q.274-.196.577-.345c.112 0 .045-.225-.232-.75a5.2 5.2 0 0 1-.72-2.655m11.632 2.34a9 9 0 0 0-4.56-6.12c-.42-.232-.63-.285-.63-.142q.06.18.18.33c.465.66.726 1.442.75 2.25a3 3 0 0 1-.75 2.34.81.81 0 0 1-1.133.045c-.3-.218-.3-.368-.112-.645a3.27 3.27 0 0 0 .563-1.988 1.91 1.91 0 0 0-.556-1.552 1.45 1.45 0 0 0-1.454-.383 2.38 2.38 0 0 0-1.44 1.725 7 7 0 0 0-.3 1.71c.005.889.224 1.763.637 2.55.288.452.645.857 1.057 1.2a1 1 0 0 1 .218.195.7.7 0 0 1-.247.127 4.8 4.8 0 0 0-2.49 2.783 5.4 5.4 0 0 0-.36 2.213 2.57 2.57 0 0 0 .75 1.927 2.49 2.49 0 0 0 2.1.563 3.95 3.95 0 0 0 2.595-1.245c.307-.33.367-.368.427-.293s.045.12-.067.307a5.63 5.63 0 0 1-3.203 2.535c-.262.068-.375.12-.375.18 0 .195 1.643-.075 2.64-.427a9.07 9.07 0 0 0 5.475-5.595 7.1 7.1 0 0 0 .413-2.79 7 7 0 0 0-.128-1.8"/></svg>
